X:1
T:Waynesboro
C:from Alan Jabour / Burl & Edden Hammons
L:1/8
M:4/4
I:linebreak $
K:G
V:1 treble
V:1
"G"(3DEF GA BAdd | edgd ed B2 | "Am"A3 B AGED | "D"(3EFG AB A2 D2 |$
"G"DEGA Bdef | gage dBAd | "C"BGAG "Am"EGDG | "D"EG [GB]2 "G"[GB]4 :: z2 z2 z2 ga |$
"G"b2 bg "D"a2 af | "C"gage "G"d2 B2 | "Am"Aa-aa- abag | (3efg ab "D"ageg |$
"G"b2 bg "D"a2 af | "C"gage "G"dBAd | "C"BGAG "Am"EGDG | "D"EG- [GB]2 "G"[GB]4 :|
